X:1365
T:The Magpie's Nest
R:Reel
N:Collected by Carey
B:O'Neill's 1365
Z:Transcribed by Trish O'Neil
M:C|
L:1/8
K:D
AdedA TBAFA|dAFA TGFED|FAAB AFEF|1ABde Tfee2:|2ABde fdd2||
a2bafg2age|f2fd ecA2|a2bag fedB|ABde Tfee2|
a2fag2eg|f2df ecAF|G2BGF2AF|ABde fdd2|]
